X:10
T:Bacup Coconut Tune 
T: Tip Top Polka
M:4/4
L:1/8
Z:Steve Mansfield 2000
K:G
d2d2 dedc | B2B2 B2GA | B2B2B2d2 | A6 AB | c2c2 cdcB | A2A2 A2G2 | 
FGAB cdef | g2g2 g4 :: g2e2 edef | g2d2 d4 | B2B2 A2G2 | 
e2d2 d2ef| g2e2 edef | g2d2d4 | cBAB cdef | g2g2 g4 :|

